X:29
T:Primrose. JJo.029, The
B:J.Johnson Choice Collection Vol 8 1758
Z:vmp.Simon Wilson 2013 www.village-music-project.org.uk
Z:Dance added by John Chambers 2017
M:6/8
L:1/8
%Q:3/8=120
K:G
|: d |\
gfg dgf | gdB G2B |  cdB A2G  | FGE D2d |\
gfg dgf | geg f2d | ^cde Ad^c | d3- d2 :|
|: d |\
dBd =f2e | dcB c3  | cAc e2d | cBA B3 |\
GBd  ecA | dBG Bdg | Aag fef | g3- g2 :|
%%begintext align
%% First Cu. turn right hands round
%% and cast off one Cu .| Left hands
%% back again :| Lead down one Cu. up
%% again and cast off :||. Right hands
%% and Left :||:
%%endtext
